svgs/regular/face-smile-plus.svg

<svg xmlns="http://www.w3.org/2000/svg" viewBox="0 0 640 512"><!--! Font Awesome Pro 6.4.2 by @fontawesome - https://fontawesome.com License - https://fontawesome.com/license (Commercial License) Copyright 2023 Fonticons, Inc. --><path d="M544 0c13.3 0 24 10.7 24 24V72h48c13.3 0 24 10.7 24 24s-10.7 24-24 24H568v48c0 13.3-10.7 24-24 24s-24-10.7-24-24V120H472c-13.3 0-24-10.7-24-24s10.7-24 24-24h48V24c0-13.3 10.7-24 24-24zM400 288A176 176 0 1 0 48 288a176 176 0 1 0 352 0zM0 288a224 224 0 1 1 448 0A224 224 0 1 1 0 288zm144.4-80a32 32 0 1 1 0 64 32 32 0 1 1 0-64zm128 32a32 32 0 1 1 64 0 32 32 0 1 1 -64 0zM146 332.8c19.1 21.6 46.9 35.2 78 35.2s58.9-13.6 78-35.2c8.8-9.9 23.9-10.9 33.9-2.1s10.9 23.9 2.1 33.9C310.2 396.1 269.4 416 224 416s-86.2-19.9-114-51.5c-8.8-9.9-7.8-25.1 2.1-33.9s25.1-7.8 33.9 2.1z"/></svg>

<svg xmlns="http://www.w3.org/2000/svg" viewBox="0 0 640 512"><!--! Font Awesome Pro 6.1.1 by @fontawesome - https://fontawesome.com License - https://fontawesome.com/license (Commercial License) Copyright 2022 Fonticons, Inc. --><path d="M544 0C557.3 0 568 10.75 568 24V72H616C629.3 72 640 82.75 640 96C640 109.3 629.3 120 616 120H568V168C568 181.3 557.3 192 544 192C530.7 192 520 181.3 520 168V120H472C458.7 120 448 109.3 448 96C448 82.75 458.7 72 472 72H520V24C520 10.75 530.7 0 544 0zM112.4 240C112.4 222.3 126.7 208 144.4 208C162 208 176.4 222.3 176.4 240C176.4 257.7 162 272 144.4 272C126.7 272 112.4 257.7 112.4 240V240zM336.4 240C336.4 257.7 322 272 304.4 272C286.7 272 272.4 257.7 272.4 240C272.4 222.3 286.7 208 304.4 208C322 208 336.4 222.3 336.4 240zM224 368C255.1 368 282.9 354.4 302 332.8C310.8 322.8 325.9 321.9 335.9 330.7C345.8 339.4 346.8 354.6 337.1 364.5C310.2 396.1 269.4 416 224 416C178.6 416 137.8 396.1 110 364.5C101.2 354.6 102.2 339.4 112.1 330.7C122.1 321.9 137.2 322.8 145.1 332.8C165.1 354.4 192.9 368 224 368zM448 288C448 411.7 347.7 512 224 512C100.3 512 0 411.7 0 288C0 164.3 100.3 64 224 64C347.7 64 448 164.3 448 288zM224 112C126.8 112 48 190.8 48 288C48 385.2 126.8 464 224 464C321.2 464 400 385.2 400 288C400 190.8 321.2 112 224 112z"/></svg>
